X:1
T:Title
%%score { 1 | ( 2 3 ) }
L:1/8
M:2/4
K:D
V:1 treble nm="Grand Piano"
V:2 bass 
V:3 bass 
V:1
 z2 z[Q:1/4=76] D | FE F[FA] | B d2 B | [FA]F DF |[M:3/8] [CE]3 |[M:1/8] D |[M:2/4] FE F[FA] | %7
[M:9/16] Bd/-d/B-B/B |[M:2/4] AF [CE]>[CF] |[M:3/8] D3 |[M:1/8] A |[M:2/4] [Fd][Fd] [Gd][GB] | %12
 [GB] [FA]2 [FA] | [Fd]D DE |[M:3/8] [DF] E2 |[M:1/8] D |[M:2/4] FE F[FA] | B d2 B | AF [CE]>[CF] | %19
[M:3/8] D3 |] %20
V:2
 z2 z [D,F,] | [D,A,D][D,A,C] [D,A,D][D,D] | [G,DG] [G,B,G]2 [G,DG] | [D,D][D,A,D] [D,F,][D,A,D] | %4
[M:3/8] [A,,A,]3 |[M:1/8] [D,F,] |[M:2/4] [D,A,D][D,A,C] [D,A,D][D,D] | %7
[M:9/16][K:treble] [G,DG][G,B,G]/-[G,B,G]/[G,DG]-[G,DG]/[G,DG] | %8
[M:2/4] [A,DF][K:bass][A,D] [A,,A,]>[A,,A,] |[M:3/8] [D,F,]3 |[M:1/8] [D,F,D] | %11
[M:2/4] [D,A,][D,A,] [G,B,][G,D] | [D,D] [D,D]2 [D,D] | [D,A,][D,F,] [D,F,][D,G,D] |[M:3/8] z C2 | %15
[M:1/8] [D,F,] |[M:2/4] [D,A,D][D,A,C] [D,A,D][D,D] | [G,DG] [G,B,G]2 [G,DG] | %18
 [A,DF][A,D][K:bass] [A,,A,]>[A,,A,] |[M:3/8] [D,F,]3 |] %20
V:3
 x4 | x4 | x4 | x4 |[M:3/8] x3 |[M:1/8] x |[M:2/4] x4 |[M:9/16][K:treble] x9/2 | %8
[M:2/4] x[K:bass] x3 |[M:3/8] x3 |[M:1/8] x |[M:2/4] x4 | x4 | x4 |[M:3/8] [A,,A,]3 |[M:1/8] x | %16
[M:2/4] x4 | x4 | x2[K:bass] x2 |[M:3/8] x3 |] %20

